X:50
T:Trumpet Quick Step. WHG.049
R:march
S:W.H.Giles MS,Bampton,Oxfordshire,1839p52
O:England
H:donated by Mrs W.R.Kettlewell to VWML,Apr 1927.
A:Bampton, Oxfordshire
N:MS has d2 for last bar of A-music, and no rest
N:bar.
Z:PJHeadford – VMP 2009
M:2/4
L:1/8
Q:1/4=120
K:G
d|gggg|g2b2|agfe|dc Bg|\
fe dc|BA G2|dd/d/ dd|d2b2|
af a/g/f/e/|d3:|z|:” Bugle”G/G/ BBd|d2BG|\
FA Ac|c2AF|GABc|defg|
d/c/B/A/ GF|AFb2|az zb|az zb|\
ab ab|a/g/f/e/ d/c/B/A/|” Bugle”GBBd|d2BG|
FAAc|c2AF|GABc|defg|\
d/c/B/A/ GF|A2G2|]

